X: 31236
T: Paddy Fahey's
R: jig
M: 6/8
K: Gdorian
|:BAG DGA|BAG gec|BAG fgd|cAF ABc|
BAG DGA|BAG g2f|ece fed|cAF ABc:|
|:BAG ~g3|GBd gec|BAG fgd|cAF ABc|
BAG ~g3|GBd g2f|ece fed|cAF ABc:|

